X:1
T:Title
%%score { ( 1 4 ) | ( 2 3 ) }
L:1/8
M:6/8
K:Eb
V:1 treble nm="Grand Piano"
V:4 treble 
V:2 bass 
V:3 bass 
V:1
 z3 z2[Q:1/4=95] B, | E2 E E2 G | [GB]2 [GB] [GB]2 [GB] | c2 A E2 c | [GB]3- [GB]2 [EG] | %5
 [FA]2 [FA] [DF]2 [DAc] | [GB]2 [GB] [EG]2 [Ge] | d2 B c2 =A | [DB]2 [DA] [DF]2 B, | E2 E E2 G | %10
[M:5/8] [GB]2 [GB] [GB]2 |[M:1/8] [GB] |[M:3/4] c2 A E2 c | [EGB]4- [EGB][GB] | %14
 [EAc]2 [EBd] [Ece]2 [EAc] |[M:7/8] [EGB]2 [B,EG] [Ge]3 [E_Gc] | %16
[M:3/4] [EGB]2 [C_G=A] [B,F_A]2 [A,B,D] |[M:5/8] [G,B,E]-[G,B,E]- [G,B,E]3 |[M:1/8] [Ge] | %19
[M:3/4] [Ad]2 [DA] [B,DA]2 [DA] | [Ad]6[K:bass][K:treble] | [Gc]2 [EG] [B,EG]2 [Gc] | %22
 [EGc]4- [EGc][EGB] | B2 =A A2 c | c2 B B2 [Fd] | [Gd]2 [Gc] [FB]2 [E=A] | [DB]4- [DB]B, | %27
 E2 E E2 G |[M:5/8] [GB]2 [GB] [GB]2 |[M:1/8] [GB] |[M:3/4] c2 A E2 c | [EGB]4- [EGB][GB] | %32
 [EAc]2 [EBd] [Ece]2 [EAc] |[M:7/8] [EGB]2 [B,EG] [Ge]3 [E_Gc] | %34
[M:3/4] [EGB]2 [C_G=A] [B,F_A]2 [A,B,D] |[M:13/8] [G,B,E]-[G,B,E]- [G,B,E]3 z z z z z z z2 |] %36
V:2
 z3 z2 [E,G,] | [E,G,B,]2 [E,G,B,] [E,G,B,]2 [E,B,E] | [E,E]2 [E,E] [E,E]2 [E,E] | %3
 [A,EA]2 [A,CE] [A,C]2 [A,EA] | [E,E]3- [E,E]2 [E,B,] | [B,,B,]2 [B,,B,] [B,,B,]2 B,, | %6
 [E,E]2 [E,E] [E,B,]2 [E,B,] | [F,B,F]2 [F,B,D] [F,=A,E]2 [F,CE] | %8
 [B,,B,]2 [B,,F,] [B,,B,]2 [D,A,] | [E,G,B,]2 [E,G,B,] [E,G,B,]2 [E,B,E] | %10
[M:5/8] [E,E]2 [E,E] [E,E]2 |[M:1/8] [E,E] |[M:3/4][K:treble] [A,EA]2 [A,CE] [A,C]2 [A,CA] | %13
 E,4- E,E | A,2 A, A,2 A, |[M:7/8] E,2 E, [C,C]3 =A,, |[M:3/4] B,,2 B,, B,,2 B,, | %17
[M:5/8] E,-E,- E,3 |[M:1/8] [E,B,] |[M:3/4] B,2 .B,2 z B, | B,4- B,[B,,B,] | B,2 .B,2 z E | %22
 E,2 E, E,2 E, | [F,CF]2 [F,CF] [F,CF]2 [_G,=A,E] | [G,B,D]2 [G,B,D] [G,B,D]2 [D,B,] | %25
 [E,B,]2 [E,C] [F,D]2 [F,C] | [B,,B,]4- [B,,B,][D,A,] | [E,G,B,]2 [E,G,B,] [E,G,B,]2 [E,B,E] | %28
[M:5/8] [E,E]2 [E,E] [E,E]2 |[M:1/8] [E,E] |[M:3/4][K:treble] [A,EA]2 [A,CE] [A,C]2 [A,CA] | %31
 E,4- E,E | A,2 A, A,2 A, |[M:7/8] E,2 E, [C,C]3 =A,, |[M:3/4] B,,2 B,, B,,2 B,, | %35
[M:13/8] E,-E,- E,3 z z z z z z z2 |] %36
V:3
 x6 | x6 | x6 | x6 | x6 | x6 | x6 | x6 | x6 | x6 |[M:5/8] x5 |[M:1/8] x |[M:3/4][K:treble] x6 | %13
 x6 | x6 |[M:7/8] x7 |[M:3/4] x6 |[M:5/8] x5 |[M:1/8] x |[M:3/4] F,3 B,,3 | F,2 z2 z2 | E,3 B,,3 | %22
 x6 | x6 | x6 | x6 | x6 | x6 |[M:5/8] x5 |[M:1/8] x |[M:3/4][K:treble] x6 | x6 | x6 |[M:7/8] x7 | %34
[M:3/4] x6 |[M:13/8] x13 |] %36
V:4
 x6 | x6 | x6 | x6 | x6 | x6 | x6 | x6 | x6 | x6 |[M:5/8] x5 |[M:1/8] x |[M:3/4] x6 | x6 | x6 | %15
[M:7/8] x7 |[M:3/4] x6 |[M:5/8] x5 |[M:1/8] x |[M:3/4] x6 | z2[K:bass] F, B,,2[K:treble] [Ad] | %21
 x6 | x6 | x6 | x6 | x6 | x6 | x6 |[M:5/8] x5 |[M:1/8] x |[M:3/4] x6 | x6 | x6 |[M:7/8] x7 | %34
[M:3/4] x6 |[M:13/8] x13 |] %36

